X:1
T:222: The Green Bushes
B:Stanford-Petrie, Complete Collection of Irish Music, 1903.
S:"Set by Mr Joyce from J. Martin, August 1854."
N:Untitled in S-P.
L:1/8
Q:1/4=100
M:3/4
K:F
C2|F2 A2 F2|E3/2F/ GA B2|c2 dc GF|E4 CD/E/|F2 A2 F2|
EF GA B2|c2 ec d=B|c4 AB|c2 A2 f2|d2 c2 d/c/A/G/|
F2 FG A3/2F/|D4 CD/F/|F2 A2 GF|EF G2 AB|c2 dB G3/2E/|F4|]
